X:1
T:Cling to the Bible
T:James Ramsey Murray 
T:Cling to the Bible
T:Public Domain
T:Public Domain
C:James Ramsey Murray
Z:Public Domain
%%score ( 1 2 ) ( 3 4 )
L:1/8
M:4/4
K:Bb
V:1 treble 
V:2 treble 
V:3 bass 
V:4 bass 
V:1
 [DB]2 [DB]>[DB] [DB]2 [FA]>[EG] | [DF]2 [DG]>D [DF]2 [CE]2 | [Ec]2 [Ec]>[Ec] [Ec]2 [DB]>[CA] | %3
w: 1.~Cling to the Bi- ble, though|all else be tak- en;|not its pre- cepts, so pre-|
w: 2.~Cling to the Bi- ble! This|jew- el and trea- sure|life e- ter- nal, and saves|
w: 3.~Lamp for the feet that in|by- ways have wan- dered,|for the youth that would o-|
 [FB]2 [Fc]>[Fc] [Fd]4 | [DB]2 [DB]>[DB] [DB]2 [FA]>[EG] | [DF]2 [DG]>D [DF]2 [CE]2 | %6
w: cious and pure; Souls|that are sleep- ing its tid-|ings a- wak- en; Life|
w: fall- en man; Sure-|ly its val- ue no mor-|tal can mea- sure: Seek|
w: ther- wise fall; Hope|for the sin- ner whose life|has been squan- dered, Staff|
 [Fc]2 [Fc]>[Fc] [Fc]2 [Fd]>[FB] | [FA]2 [=EG]>[EG] F4 ||"^Refrain" [DB]2 [DB]>[Ec] [Fd]2 [DB]2 | %9
w: the dead in its prom- is-|es sure. * *||
w: its bless- ing, O soul, while|you can! * *||
w: the a- gèd, and best book|of all. * *||
 [Fc]2 [Fc]>[Fd] [Fe]2 [Fc]2 | [Fd]2 [Fd]>[Fe] [Ff]2 [Gf]>[Ge] | [Fd]2 [Ec]>[Ec] [DB]4 |] %12
w: |||
w: |||
w: |||
V:2
 x8 | x7/2 D/ x4 | x8 | x8 | x8 | x7/2 D/ x4 | x8 | x4 F4 || x8 | x8 | x8 | x8 |] %12
w: |Lose||||from|||||||
w: |Brings||||for|||||||
w: |Guide||||for|||||||
V:3
 [B,,F,]2 [B,,F,]>[B,,F,] [B,,F,]2 [B,,G,]>[B,,A,] | [B,,B,]2 [G,,=B,]>[G,,B,] [C,C]2 [C,G,]2 | %2
w: ~ ~ ~ ~ ~ ~|~ ~ ~ ~ ~|
 [F,A,]2 [F,A,]>[F,A,] [F,A,]2 [F,B,]>[E,C] | [D,B,]2 [F,A,]>[F,A,] B,4 | %4
w: ~ ~ ~ ~ ~ ~|~ ~ ~ ~|
 [B,,F,]2 [B,,F,]>[B,,F,] [B,,F,]2 [B,,G,]>[B,,A,] | [B,,B,]2 [G,,=B,]>[G,,B,] [C,C]2 [C,G,]2 | %6
w: ~ ~ ~ ~ ~ ~|~ ~ ~ ~ ~|
 [F,A,]2 [F,A,]>[F,A,] [F,A,]2 [B,,B,]>[B,,D] | [C,C]2 [C,B,]>[C,B,] [F,A,]4 || %8
w: ~ ~ ~ ~ ~ ~|~ ~ ~ Cling|
 [B,,F,]2 [B,,F,]>[B,,F,] [B,,B,]2 [B,,F,]2 | [F,A,]2 [F,A,]>[F,B,] [F,C]2 [F,A,]2 | %10
w: to the Bi- ble! Cling|to the Bi- ble! Cling|
 B,2 B,>[B,C] [B,D]2 [E,B,]>[E,B,] | [F,B,]2 [F,A,]>[F,A,] [B,,B,]4 |] %12
w: to the Bi- ble— Our Lamp|Guide! * * *|
V:4
 x8 | x8 | x8 | x4 B,4 | x8 | x8 | x8 | x8 || x8 | x8 | B,2 B,3/2 x9/2 | x8 |] %12
w: |||~|||||||and our||

